Sweet-Rainbow/icons/accessories-text-editor.svg

<?xml version="1.0" encoding="UTF-8" standalone="no"?>
<!-- Generator: Gravit.io -->

<svg
   xmlns:dc="http://purl.org/dc/elements/1.1/"
   xmlns:cc="http://creativecommons.org/ns#"
   xmlns:rdf="http://www.w3.org/1999/02/22-rdf-syntax-ns#"
   xmlns:svg="http://www.w3.org/2000/svg"
   xmlns="http://www.w3.org/2000/svg"
   xmlns:sodipodi="http://sodipodi.sourceforge.net/DTD/sodipodi-0.dtd"
   xmlns:inkscape="http://www.inkscape.org/namespaces/inkscape"
   style="isolation:isolate"
   viewBox="0 0 36 36"
   width="48"
   height="48"
   version="1.1"
   id="svg9"
   sodipodi:docname="accessories-text-editor.svg"
   inkscape:version="0.92.4 (5da689c313, 2019-01-14)">
  <metadata
     id="metadata15">
    <rdf:RDF>
      <cc:Work
         rdf:about="">
        <dc:format>image/svg+xml</dc:format>
        <dc:type
           rdf:resource="http://purl.org/dc/dcmitype/StillImage" />
        <dc:title></dc:title>
      </cc:Work>
    </rdf:RDF>
  </metadata>
  <defs
     id="defs13" />
  <sodipodi:namedview
     pagecolor="#ffffff"
     bordercolor="#666666"
     borderopacity="1"
     objecttolerance="10"
     gridtolerance="10"
     guidetolerance="10"
     inkscape:pageopacity="0"
     inkscape:pageshadow="2"
     inkscape:window-width="640"
     inkscape:window-height="480"
     id="namedview11"
     showgrid="false"
     inkscape:zoom="29.365243"
     inkscape:cx="25.325443"
     inkscape:cy="32"
     inkscape:current-layer="svg9"
     units="px" />
  <linearGradient
     id="_lgradient_6"
     x1="0"
     y1="0.5"
     x2="1"
     y2="0.5"
     gradientTransform="matrix(44,0,0,45,2,1)"
     gradientUnits="userSpaceOnUse">
    <stop
       offset="0%"
       stop-opacity="1"
       style="stop-color:rgb(242,55,239)"
       id="stop2" />
    <stop
       offset="98.69565217391305%"
       stop-opacity="1"
       style="stop-color:rgb(252,82,82)"
       id="stop4" />
  </linearGradient>
  <g
     id="g826"
     transform="matrix(0.81818182,0,0,0.81818182,-1.6363637,-1.6363637)">
    <path
       id="path7"
       d="M 39.709,7.121 18,28.83 v 2.4 L 20.92,30.25 42.464,8.706 C 44.416,6.754 46,7.41 46,10.17 V 41 c 0,2.76 -2.24,5 -5,5 H 7 C 4.24,46 2,43.76 2,41 V 7 C 2,4.24 4.24,2 7,2 h 21 v 0 c 1.104,0 2,0.896 2,2 v 0 c 0,1.104 -0.896,2 -2,2 V 6 H 9 C 7.344,6 6,7.344 6,9 v 30 c 0,1.656 1.344,3 3,3 h 30 c 1.656,0 3,-1.344 3,-3 V 15.83 c 0,-0.552 -0.317,-0.683 -0.707,-0.293 L 24.494,32.336 c -0.78,0.78 -2.264,1.697 -3.312,2.045 l -5.284,1.758 C 14.85,36.487 14,35.874 14,34.77 v -5.6 c 0,-1.104 0.634,-2.634 1.414,-3.414 L 38.049,3.121 C 39.219,1.951 40.542,1.896 41,3 v 0 c 0.458,1.104 -0.121,2.951 -1.291,4.121 z"
       inkscape:connector-curvature="0"
       style="fill:url(#_lgradient_6)" />
  </g>
</svg>

<?xml version="1.0" encoding="UTF-8" standalone="no"?><!-- Generator: Gravit.io --><svg xmlns="http://www.w3.org/2000/svg" xmlns:xlink="http://www.w3.org/1999/xlink" style="isolation:isolate" viewBox="0 0 48 48" width="48pt" height="48pt"><linearGradient id="_lgradient_6" x1="0" y1="0.5" x2="1" y2="0.5" gradientTransform="matrix(44,0,0,45,2,1)" gradientUnits="userSpaceOnUse"><stop offset="0%" stop-opacity="1" style="stop-color:rgb(242,55,239)"/><stop offset="98.69565217391305%" stop-opacity="1" style="stop-color:rgb(252,82,82)"/></linearGradient><path d=" M 39.709 7.121 L 18 28.83 L 18 31.23 L 20.92 30.25 L 42.464 8.706 C 44.416 6.754 46 7.41 46 10.17 L 46 41 C 46 43.76 43.76 46 41 46 L 7 46 C 4.24 46 2 43.76 2 41 L 2 7 C 2 4.24 4.24 2 7 2 L 28 2 L 28 2 C 29.104 2 30 2.896 30 4 L 30 4 C 30 5.104 29.104 6 28 6 L 28 6 L 9 6 C 7.344 6 6 7.344 6 9 L 6 39 C 6 40.656 7.344 42 9 42 L 39 42 C 40.656 42 42 40.656 42 39 L 42 15.83 C 42 15.278 41.683 15.147 41.293 15.537 L 24.494 32.336 C 23.714 33.116 22.23 34.033 21.182 34.381 L 15.898 36.139 C 14.85 36.487 14 35.874 14 34.77 L 14 29.17 C 14 28.066 14.634 26.536 15.414 25.756 L 38.049 3.121 C 39.219 1.951 40.542 1.896 41 3 L 41 3 C 41.458 4.104 40.879 5.951 39.709 7.121 Z " fill="url(#_lgradient_6)"/></svg>
